X:80
T:Daully ip thinglymeny2
Z:id:hn-slipjig-26
M:9/8
K:D
DA|:A2d ~g3 edc|~G3 AGA eDd|eaa g2e d2


*****************************


18100 2 0.43591794 

<starthst):
Z:id:hn-slipjig-38
M:C|
K:D
D2F DEF F2A|Bcd B2A BEG|BEf ADd GAG||
FDD DEc:|2 D2F E2D E2F||
<e


*****************************


18200 2 0.90384406 

<stark
